svg/remove-cloud.svg

<?xml version="1.0" encoding="UTF-8"?>
<svg xmlns="http://www.w3.org/2000/svg" xmlns:xlink="http://www.w3.org/1999/xlink" width="32" height="32" viewBox="0 0 32 32">
<path fill-rule="nonzero" fill="rgb(0%, 0%, 0%)" fill-opacity="1" d="M 26.960938 14.246094 C 26.96875 14.121094 26.972656 14.003906 26.972656 13.886719 C 26.972656 9.246094 23.195312 5.46875 18.554688 5.46875 C 15.351562 5.46875 12.421875 7.324219 11.015625 10.164062 C 9.683594 9.285156 7.988281 9.179688 6.558594 9.890625 C 5.128906 10.597656 4.183594 12.011719 4.074219 13.601562 C 1.632812 14.496094 0.0078125 16.816406 0 19.414062 C 0 22.832031 2.773438 25.605469 6.191406 25.601562 L 26.300781 25.601562 C 29.445312 25.597656 31.996094 23.046875 32 19.902344 C 31.996094 17.011719 29.832031 14.582031 26.960938 14.246094 M 20.292969 20.667969 C 20.542969 20.917969 20.542969 21.324219 20.292969 21.574219 C 20.042969 21.824219 19.636719 21.824219 19.386719 21.574219 L 16.640625 18.824219 L 13.890625 21.574219 C 13.773438 21.695312 13.609375 21.761719 13.441406 21.761719 C 13.183594 21.761719 12.949219 21.605469 12.847656 21.367188 C 12.75 21.128906 12.804688 20.851562 12.988281 20.667969 L 15.734375 17.921875 L 12.988281 15.171875 C 12.867188 15.054688 12.800781 14.890625 12.800781 14.71875 C 12.800781 14.550781 12.867188 14.386719 12.988281 14.265625 C 13.238281 14.015625 13.640625 14.015625 13.890625 14.265625 L 16.640625 17.015625 L 19.386719 14.265625 C 19.640625 14.042969 20.027344 14.054688 20.265625 14.292969 C 20.503906 14.535156 20.515625 14.917969 20.292969 15.171875 L 17.546875 17.921875 Z M 20.292969 20.667969 "/>
</svg>

<svg role="img" viewBox="0 0 32 32" xmlns="http://www.w3.org/2000/svg"><path d="M26.96 14.246c.009-.125.013-.242.013-.36 0-4.64-3.778-8.417-8.418-8.417-3.203 0-6.133 1.855-7.54 4.695a4.483 4.483 0 0 0-6.941 3.438A6.21 6.21 0 0 0 0 19.414a6.19 6.19 0 0 0 6.191 6.188h20.11a5.71 5.71 0 0 0 5.699-5.7 5.7 5.7 0 0 0-5.04-5.656m-6.667 6.422a.641.641 0 0 1-.906.906l-2.746-2.75-2.75 2.75a.63.63 0 0 1-.45.188.65.65 0 0 1-.593-.395.65.65 0 0 1 .14-.699l2.746-2.746-2.746-2.75a.64.64 0 0 1 0-.906c.25-.25.653-.25.903 0l2.75 2.75 2.746-2.75a.642.642 0 0 1 .906.906l-2.746 2.75Zm0 0"/></svg>
